icons/maximize-24.svg

<svg width="24" height="24" viewBox="0 0 24 24" fill="none" xmlns="http://www.w3.org/2000/svg">
<path d="M9.46973 13.4697C9.76262 13.1768 10.2374 13.1768 10.5303 13.4697C10.8232 13.7626 10.8232 14.2374 10.5303 14.5303L4.81055 20.25H9C9.41421 20.25 9.75 20.5858 9.75 21C9.75 21.4142 9.41421 21.75 9 21.75H3C2.95462 21.75 2.91035 21.745 2.86719 21.7373C2.86165 21.7363 2.8561 21.7355 2.85059 21.7344C2.8372 21.7317 2.82464 21.7261 2.81152 21.7227C2.77828 21.714 2.74492 21.7057 2.71289 21.6924C2.68375 21.6803 2.65703 21.664 2.62988 21.6484C2.5732 21.616 2.51812 21.5787 2.46973 21.5303C2.421 21.4816 2.3831 21.4263 2.35059 21.3691C2.33512 21.342 2.31868 21.3153 2.30664 21.2861C2.28603 21.2361 2.27106 21.1844 2.26172 21.1318C2.25413 21.089 2.25 21.045 2.25 21V15C2.25 14.5858 2.58579 14.25 3 14.25C3.41421 14.25 3.75 14.5858 3.75 15V19.1895L9.46973 13.4697Z" fill="black"/>
<path d="M21 2.25C21.045 2.25 21.089 2.25413 21.1318 2.26172C21.1374 2.2627 21.1429 2.26354 21.1484 2.26465C21.1618 2.26733 21.1744 2.27298 21.1875 2.27637C21.2207 2.28495 21.2541 2.29344 21.2861 2.30664C21.3153 2.31868 21.342 2.33512 21.3691 2.35059C21.4263 2.3831 21.4816 2.421 21.5303 2.46973C21.5787 2.51812 21.616 2.5732 21.6484 2.62988C21.664 2.65703 21.6803 2.68375 21.6924 2.71289C21.7131 2.76289 21.7279 2.81459 21.7373 2.86719C21.745 2.91035 21.75 2.95462 21.75 3V9C21.75 9.41421 21.4142 9.75 21 9.75C20.5858 9.75 20.25 9.41421 20.25 9V4.81055L14.5303 10.5303C14.2374 10.8232 13.7626 10.8232 13.4697 10.5303C13.1768 10.2374 13.1768 9.76262 13.4697 9.46973L19.1895 3.75H15C14.5858 3.75 14.25 3.41421 14.25 3C14.25 2.58579 14.5858 2.25 15 2.25H21Z" fill="black"/>
</svg>

<svg xmlns="http://www.w3.org/2000/svg" width="24" height="24" viewBox="0 0 24 24"><path d="M9.47 13.47a.749.749 0 1 1 1.06 1.06l-5.719 5.72H9a.75.75 0 0 1 0 1.5H3a.731.731 0 0 1-.133-.013l-.016-.003c-.014-.002-.026-.008-.039-.011-.034-.009-.067-.017-.099-.031a.659.659 0 0 1-.083-.044.696.696 0 0 1-.279-.279A.713.713 0 0 1 2.25 21v-6a.75.75 0 0 1 1.5 0v4.189l5.72-5.719ZM21 2.25a.72.72 0 0 1 .132.012l.016.003c.014.002.026.008.04.011.033.009.066.017.098.031a.659.659 0 0 1 .083.044.696.696 0 0 1 .279.279.659.659 0 0 1 .102.37v6a.75.75 0 0 1-1.5 0V4.811l-5.72 5.719a.749.749 0 1 1-1.06-1.06l5.719-5.72H15a.75.75 0 0 1 0-1.5h6Z"/></svg>
